icons/tokens/0x2260FAC5E5542a773Aa44fBCfeDf7C193bc2C599/logo.svg

<svg xmlns="http://www.w3.org/2000/svg" width="32" height="32" viewBox="0 0 32 32">
  <g fill="none" fill-rule="evenodd">
    <circle cx="16" cy="16" r="15.5" fill="#FFF"/>
    <g fill-rule="nonzero">
      <path fill="#F7931A" d="M21.8746634,12.2281122 C21.6752483,10.1475484 19.8805127,9.44959565 17.6105046,9.23688625 L17.6105046,6.37195647 L15.855652,6.37195647 L15.855652,9.18370889 C15.3936737,9.18370889 14.9217248,9.18370889 14.4530994,9.18370889 L14.4530994,6.37195647 L12.7115411,6.37195647 L12.7115411,9.25682775 L9.1519822,9.25682775 L9.1519822,11.134653 C9.1519822,11.134653 10.4481801,11.1113879 10.4282386,11.134653 C10.9140172,11.0812123 11.3548487,11.422122 11.4253139,11.9057245 L11.4253139,19.8025611 C11.4152255,19.9683379 11.3385025,20.1229827 11.2126045,20.2313035 C11.0890503,20.3417071 10.9258012,20.3969237 10.7605971,20.3841884 C10.7838621,20.4041299 9.48434064,20.3841884 9.48434064,20.3841884 L9.1519822,22.4813702 L12.6783053,22.4813702 L12.6783053,25.4127716 L14.4331578,25.4127716 L14.4331578,22.5245768 L15.8357105,22.5245768 L15.8357105,25.3994773 L17.5938866,25.3994773 L17.5938866,22.5013117 C20.5585239,22.3218381 22.6257934,21.5906495 22.885033,18.8154566 C23.0944188,16.5820078 22.0441662,15.5849325 20.365756,15.1827788 C21.3860965,14.6809175 22.0175775,13.7503139 21.8746634,12.2281122 Z M19.4152109,18.4698038 C19.4152109,20.6500752 15.679502,20.4008063 14.4896588,20.4008063 L14.4896588,16.5321541 C15.679502,16.5354776 19.4152109,16.1931484 19.4152109,18.4698038 Z M18.6009327,13.0191253 C18.6009327,15.013276 15.4834105,14.7706543 14.4929824,14.7706543 L14.4929824,11.254302 C15.4834105,11.254302 18.6009327,10.9418851 18.6009327,13.0191253 Z"/>
      <path fill="#000" d="M15.9990238,2.95892278e-07 C24.8348171,-0.000538882962 31.9983822,7.16127787 32.0000003,15.9970711 C32.0007768,20.2415498 30.3150083,24.3124088 27.3137086,27.3137086 C24.3124088,30.3150083 20.2415498,32.0007768 15.9970711,32.0000003 C7.16127787,31.9983822 -0.000538882963,24.8348171 2.95891823e-07,15.9990238 C0.000539474746,7.16323045 7.16323045,0.000539474747 15.9990238,2.95892278e-07 Z M15.9970711,1.24766144 C7.85672547,1.25413504 1.26200748,7.85671811 1.26524001,15.9970657 C1.26847492,24.1374132 7.86843652,30.7347562 16.0087847,30.7347562 C24.1491329,30.7347562 30.7490969,24.1374186 30.7523348,15.9970711 C30.7538896,12.0837937 29.1996343,8.33043273 26.4319798,5.56387697 C23.6643254,2.79732121 19.9103475,1.24455632 15.9970711,1.24766144 Z"/>
      <path fill="#5A5564" d="M26.0306056 6.77229975L25.1578783 7.64502702C29.4742904 12.3653309 29.4742904 19.5996322 25.1578783 24.3199361L26.0306056 25.1926634C30.8328825 19.9836998 30.8328825 11.9608997 26.0306056 6.75193611L26.0306056 6.77229975zM7.67715105 6.84793611C12.3974549 2.53152403 19.6317563 2.53152403 24.3520601 6.84793611L25.2247874 5.97520884C20.0158238 1.17293196 11.9930237 1.17293196 6.78406014 5.97520884L7.67715105 6.84793611zM6.8596965 24.3286634C2.54860222 19.6096428 2.54860222 12.3815021 6.8596965 7.66248157L5.98696923 6.78975429C1.18469236 11.9987179 1.18469236 20.021518 5.98696923 25.2304816L6.8596965 24.3286634zM24.3404238 25.1344816C19.6201199 29.4508936 12.3858185 29.4508936 7.66551469 25.1344816L6.79278741 26.0072088C12.001751 30.8094857 20.0245511 30.8094857 25.2335147 26.0072088L24.3404238 25.1344816z"/>
    </g>
  </g>
</svg>

<svg viewBox="0 0 32 32"><g fill="none" fill-rule="evenodd"><circle cx="16" cy="16" r="15.5" fill="#FFF"/><g fill-rule="nonzero"><path fill="#F7931A" d="M21.875 12.228c-.2-2.08-1.994-2.778-4.264-2.991V6.372h-1.755v2.812h-1.403V6.372h-1.741v2.885h-3.56v1.878s1.296-.024 1.276 0a.907.907 0 01.997.77v7.898a.615.615 0 01-.212.428.608.608 0 01-.452.153c.023.02-1.277 0-1.277 0l-.332 2.097h3.526v2.932h1.755v-2.888h1.403v2.874h1.758v-2.898c2.965-.18 5.032-.91 5.291-3.686.21-2.233-.84-3.23-2.52-3.632 1.021-.502 1.653-1.433 1.51-2.955zm-2.46 6.242c0 2.18-3.735 1.93-4.925 1.93v-3.868c1.19.003 4.925-.339 4.925 1.938zm-.814-5.45c0 1.993-3.118 1.75-4.108 1.75v-3.516c.99 0 4.108-.312 4.108 1.765z"/><path fill="#000" d="M15.999 0c8.836 0 16 7.161 16.001 15.997A16 16 0 0115.997 32C7.161 31.998 0 24.835 0 15.999 0 7.163 7.163.001 15.999 0zm-.002 1.248c-8.14.006-14.735 6.609-14.732 14.75.003 8.14 6.603 14.737 14.744 14.737 8.14 0 14.74-6.598 14.743-14.738a14.744 14.744 0 00-14.755-14.75z"/><path fill="#5A5564" d="M26.03 6.772l-.872.873a12.355 12.355 0 010 16.675l.873.873c4.802-5.21 4.802-13.232 0-18.441v.02zm-18.353.076a12.355 12.355 0 0116.675 0l.873-.873c-5.21-4.802-13.232-4.802-18.44 0l.892.873zm-.817 17.48a12.355 12.355 0 010-16.666l-.873-.872c-4.802 5.209-4.802 13.232 0 18.44l.873-.901zm17.48.806a12.355 12.355 0 01-16.674 0l-.873.873c5.209 4.802 13.232 4.802 18.44 0l-.893-.873z"/></g></g></svg>
